X:196
T:Swiss Boy,The. JGi.196
M:2/4
L:1/8
Q:1/4=60
S:Joshua Gibbons MS,1823,Tealby,Lincs.
R:
O:Tealby,Lincolnshire
Z:VMP/R.Greig, 2009
K:C
E/>F/|GE/>F/ GE/>F/|G (e/d/) c G/>G/|G (f/e/) d(e/d/)|c3 E/>F/|
GE/>F/ GE/>F/|G (e/d/) c G/>G/|G (f/e/) de/d/|cec:|
G|F (d/c/) BG|G (e/d/) cG|(F/G/) (d/c/) BG|G e/d/ c G|
(G/F/) E/>F/ GE/>F/|G (e/d/) cG/>G/|G (f/e/) d(e/d/)|cec:|

